X:1
T:Miss Gow of London
T:Miss Gow of London
T:Nathaniel Gow (1763-1831)
C:Nathaniel Gow (1763-1831)
L:1/8
M:6/8
K:G
V:1 treble 
V:1
 d3 (BG).A | (FD).F G3 | ABc BAG | T^c>de d3 | (dg).d .B(GA) | FDF G3 | ABc (Bd).G | (Ad).F G3 || %8
 d2 g gfe | (d2 e) dBc | d2 g{a} gfg | (ba)^c d3 | d2 g gfe | (de)^c def |{a} gfg .b(fg) | %15
 aef g(de) | d3 (BG)A | FDF G3 | ABc BAG | T^c>de d3 | (dg)d .B(GA) | (FD).F G3 | ABc (Bd).G | %23
 (Ad).F G3 || %24

